X:139
M:4/4
L:1/4
K:F
c c c B | A A A G | F G A A | c/B/ A G2 | c c c B | A A A G | !sintro!F G A A | B E F2 !eintro!|]
